svg/color/cvxon.svg

<svg width="40" height="40" viewBox="0 0 40 40" fill="none" xmlns="http://www.w3.org/2000/svg">
<g clip-path="url(#clip0_820_3840)">
<path d="M20 0C31.0457 0 40 8.9543 40 20C40 31.0457 31.0457 40 20 40C8.95431 40 7.90517e-06 31.0457 0 20C6.58765e-07 8.95431 8.95431 1.97595e-06 20 0Z" fill="#CCDCEE"/>
<path d="M26 6C30.4183 6 34 9.58172 34 14V26C34 30.4183 30.4183 34 26 34H14C9.58172 34 6 30.4183 6 26V14C6 9.58172 9.58172 6 14 6H26Z" fill="#0050AA"/>
<path d="M29.5834 25.2648L20.0008 28.4608L10.4206 25.2663L10.4175 25.2671L10.4167 18.8766L19.9977 22.0703L29.5834 18.8766V25.2648ZM29.5834 17.8737L20.0008 21.0697L10.4206 17.8753L10.4175 17.876L10.4167 11.4856L19.9977 14.6793L29.5834 11.4856V17.8737Z" fill="white"/>
</g>
<defs>
<clipPath id="clip0_820_3840">
<rect width="40" height="40" fill="white"/>
</clipPath>
</defs>
</svg>

<svg xmlns="http://www.w3.org/2000/svg" width="40" height="40" fill="none" viewBox="0 0 40 40"><g clip-path="url(#cvxon_svg-a)"><path fill="#CCDCEE" d="M20 0c11.046 0 20 8.954 20 20s-8.954 20-20 20S0 31.046 0 20 8.954 0 20 0"/><path fill="#0050AA" d="M26 6a8 8 0 0 1 8 8v12a8 8 0 0 1-8 8H14a8 8 0 0 1-8-8V14a8 8 0 0 1 8-8z"/><path fill="#fff" d="m29.583 25.265-9.582 3.196-9.58-3.195-.003.001-.001-6.39 9.58 3.193 9.586-3.193zm0-7.391-9.582 3.196-9.58-3.195-.003.001-.001-6.39 9.58 3.193 9.586-3.193z"/></g><defs><clipPath id="cvxon_svg-a"><path fill="#fff" d="M0 0h40v40H0z"/></clipPath></defs></svg>
